X: 957
T: All In Good Company
R: jig
M: 6/8
K: Dmajor
|:A|FED FAd|fdA F2 A|GFG BAG|F/G/AF EAG|
FED F2 d|fdA F2 A|GFG BA^G|Adc d2:|
|:e|fdA FAd|gec A2 e|gec ABG|F/G/Ad F2 e|
fdA F2 d|gec A2 e|gec Aec|d/e/fe d2:|

